X:1
C:by Carl Thor
Z:Sidereal Shufﬂe
L:1/8
M:2/2
I:linebreak $
K:G
V:1 treble nm="Voice" snm="Voice"
V:1
"G" DEGA BdBA | BdBG"C" AGEG |"G" DEGA BdBA | BA G2"Em" E4 |$"G" DEGA Bdeg | edBG"C" AGAB | %6
"G" dege-"C" edge |"D" dB A2"G" G4 ::$"Em" GFEF GABd | edBd-"D" dB A2 |"Em" GFEF GABd- | %11
 dB A2"Bm" B4 |$ GFEF GABd- | dedB AGAB | dege- edge | dB A2 G4 :| %16
